assets/images/close-wh.svg

<svg width="95" height="95" viewBox="0 0 95 95" fill="none" xmlns="http://www.w3.org/2000/svg">
<circle cx="47.5" cy="47.5" r="47" stroke="white" stroke-opacity="0.2"/>
<path fill-rule="evenodd" clip-rule="evenodd" d="M53.4602 52.753C53.6554 52.9483 53.6554 53.2649 53.4602 53.4602C53.2649 53.6554 52.9483 53.6554 52.753 53.4602L47.8137 48.5208L42.8744 53.4602C42.6791 53.6554 42.3625 53.6554 42.1673 53.4602C41.972 53.2649 41.972 52.9483 42.1673 52.753L47.1066 47.8137L42.1464 42.8536C41.9512 42.6583 41.9512 42.3417 42.1464 42.1464C42.3417 41.9512 42.6583 41.9512 42.8536 42.1464L47.8137 47.1066L52.7739 42.1464C52.9691 41.9512 53.2857 41.9512 53.481 42.1464C53.6762 42.3417 53.6762 42.6583 53.481 42.8536L48.5208 47.8137L53.4602 52.753Z" fill="white"/>
</svg>

<svg width="95" height="95" fill="none" xmlns="http://www.w3.org/2000/svg"><circle cx="47.5" cy="47.5" r="47" stroke="#fff" stroke-opacity=".2"/><path fill-rule="evenodd" clip-rule="evenodd" d="M53.46 52.753a.5.5 0 01-.707.707l-4.94-4.94-4.939 4.94a.5.5 0 01-.707-.707l4.94-4.94-4.96-4.96a.5.5 0 01.707-.707l4.96 4.96 4.96-4.96a.5.5 0 01.707.708l-4.96 4.96 4.94 4.939z" fill="#fff"/></svg>
